X:244
T:Ranting Roaring Highlandman. RH.244, The
R:reel
B:Rev.R.Harrison's MS,c1815,Cumbria
O:England
A:Temple Sowerby,Cumbria
Z:vmp.Simon Wilson. Review PJH, 2008.
M:2/4
L:1/8
Q:1/4=150
K:Hp
e|A/A/A ed|cdec|d/c/B/A/ GB|gBBa|\
A/A/A ed|cdec|dB^gB|aAA:|
|:g|aefd|cdec|d/c/B/A/ GB|gBBg|\
aefd|cdec|dBgB|aAA|
g|aefd|cdec|d/c/B/A/ GB|gBBg|\
afge|fdec|dB ^gf/g/|aAA:|

